brandFactory_export/2.Regular/Refrescar recargar pagina_2Regular.svg

<?xml version="1.0" encoding="UTF-8"?>
<svg width="24px" height="24px" viewBox="0 0 24 24" version="1.1" xmlns="http://www.w3.org/2000/svg" xmlns:xlink="http://www.w3.org/1999/xlink">
    <title>2.Regular/Refrescar recargar pagina_2Regular</title>
    <g id="Symbols" stroke="none" stroke-width="1" fill="none" fill-rule="evenodd">
        <g id="2.Regular/Refrescar-recargar-pagina_2Regular" fill="#5CB615" fill-rule="nonzero">
            <path d="M14.9176471,7.98991597 C15.0319328,8.23193277 15.2773109,8.38319328 15.5428571,8.37983193 L15.5831933,8.37983193 L22.5546218,7.97647059 C22.8941176,7.96302521 23.1697479,7.69747899 23.1966387,7.35798319 L23.6201681,0.736134454 C23.6369748,0.460504202 23.4756303,0.201680672 23.2201681,0.0907563025 C22.9613445,-0.0201680672 22.6621849,0.0302521008 22.4571429,0.221848739 L19.3714286,3.15966387 C17.2403361,1.50588235 14.6151261,0.611764706 11.9193277,0.61512605 C5.34453782,0.61512605 0,5.78151261 0,12.1344538 C0,18.487395 5.34453782,23.6537815 11.9159664,23.6537815 C16.8638655,23.6537815 21.3512605,20.6420168 23.0823529,16.1579832 C23.2739496,15.6504202 23.0151261,15.0857143 22.507563,14.8941176 L22.4773109,14.8840336 C21.9529412,14.6890756 21.3680672,14.9478992 21.1563025,15.4655462 C19.7243697,19.1764706 16.010084,21.6705882 11.9159664,21.6705882 C6.47731092,21.6739496 2.05378151,17.394958 2.05378151,12.1344538 C2.05378151,6.87394958 6.47731092,2.59495798 11.9159664,2.59495798 C14.097479,2.59495798 16.1882353,3.28403361 17.902521,4.5512605 L15.0588235,7.25042017 C14.8571429,7.43865546 14.8,7.73781513 14.9176471,7.98991597" id="Path"></path>
        </g>
    </g>
</svg>

<svg width="24" height="24" viewBox="0 0 24 24" xmlns="http://www.w3.org/2000/svg"><path d="M14.918 7.99c.114.242.36.393.625.39h.04l6.972-.404a.671.671 0 00.642-.618L23.62.736a.664.664 0 00-.4-.645.708.708 0 00-.763.13L19.371 3.16A12.135 12.135 0 0011.92.615C5.345.615 0 5.782 0 12.135c0 6.352 5.345 11.519 11.916 11.519 4.948 0 9.435-3.012 11.166-7.496a.981.981 0 00-.574-1.264l-.03-.01a1.038 1.038 0 00-1.322.582c-1.432 3.71-5.146 6.205-9.24 6.205-5.439.003-9.862-4.276-9.862-9.537 0-5.26 4.423-9.539 9.862-9.539 2.181 0 4.272.689 5.987 1.956l-2.844 2.7a.641.641 0 00-.141.739" fill="#5CB615" fill-rule="nonzero"/></svg>
